X: 6822
T: Charlie Harris's
R: polka
M: 2/4
K: Dmajor
|:B|AF DF|EF DF|AF AB|e2 d>B|
AF DF|EF DF|AF AB|d2 d:|
|:A|d2 fd|ef dB|AF AB|e2 dA|
[1 d2 fd|ef dB|AF AB|d3:|
[2 df f/e/f/g/|af f>f|af ef|d3||

